Front/img/common-section_compare/illu-6.svg

<svg width="225" height="225" viewBox="0 0 225 225" fill="none" xmlns="http://www.w3.org/2000/svg">
<path d="M41.3672 87.5124C41.3672 47.2492 74.007 14.6094 114.27 14.6094C154.533 14.6094 187.173 47.2491 187.173 87.5123V190.949H41.3672V87.5124Z" fill="#E1E1E1"/>
<ellipse cx="168.444" cy="88.5786" rx="18.2257" ry="17.1606" fill="#FAFAFC"/>
<ellipse cx="59.089" cy="88.5786" rx="18.2257" ry="17.1606" fill="#FAFAFC"/>
<ellipse cx="95.5421" cy="88.5786" rx="18.2257" ry="17.1606" fill="#FAFAFC"/>
<ellipse cx="131.991" cy="88.5786" rx="18.2257" ry="17.1606" fill="#FAFAFC"/>
<rect x="40.8633" y="89.168" width="147.021" height="106.514" fill="#FAFAFC"/>
<rect x="111.336" y="64.3164" width="3.64515" height="87.5782" fill="#E1E1E1"/>
<path d="M121.057 164.913C112.795 164.913 110.932 156.234 111.337 151.894L114.982 151.867C114.804 155.22 115.771 161.362 121.057 161.362C126.344 161.362 126.702 156.037 126.525 153.078H129.562C129.968 157.023 129.319 164.913 121.057 164.913Z" fill="#E1E1E1"/>
<path d="M125.527 102.875L187.571 130.585V211.869H125.527V102.875Z" fill="#E1E1E1"/>
<path d="M178.707 154.546L178.707 151.309L132.916 151.309L132.916 154.546L178.707 154.546Z" fill="white"/>
<path d="M178.707 143.753L178.707 140.516L132.916 140.516L132.916 143.753L178.707 143.753Z" fill="white"/>
<path d="M178.707 197.71L178.707 194.473L132.916 194.473L132.916 197.71L178.707 197.71Z" fill="white"/>
<path d="M178.707 186.921L178.707 183.684L132.916 183.684L132.916 186.921L178.707 186.921Z" fill="white"/>
<path d="M178.707 176.128L178.707 172.891L132.916 172.891L132.916 176.128L178.707 176.128Z" fill="white"/>
<path d="M178.707 165.335L178.707 162.098L132.916 162.098L132.916 165.335L178.707 165.335Z" fill="white"/>
<path d="M120.242 97.9981C121.053 96.6298 122.815 96.1217 124.232 96.8472L192.582 131.84C194.08 132.607 194.613 134.449 193.756 135.895C192.944 137.263 191.183 137.771 189.766 137.046L121.416 102.053C119.918 101.286 119.385 99.4443 120.242 97.9981Z" fill="#152D5D"/>
<path d="M102.91 83.4531L40.8663 116.101V211.872H102.91V83.4531Z" fill="#152D5D"/>
<rect x="63.4805" y="188.133" width="17.7268" height="23.7412" fill="#0C2048"/>
<path d="M93.3983 122.16H84.8828V135.115H93.3983V122.16Z" fill="#FF8139"/>
<path d="M76.367 122.16H67.8516V135.115H76.367V122.16Z" fill="#FF8139"/>
<path d="M59.3358 122.16H50.8203V135.115H59.3358V122.16Z" fill="#FF8139"/>
<path d="M93.3983 142.18H84.8828V155.134H93.3983V142.18Z" fill="#FF8139"/>
<path d="M76.367 142.18H67.8516V155.134H76.367V142.18Z" fill="#FF8139"/>
<path d="M59.3358 142.18H50.8203V155.134H59.3358V142.18Z" fill="#FF8139"/>
<path d="M93.3983 162.203H84.8828V175.158H93.3983V162.203Z" fill="#FF8139"/>
<path d="M76.367 162.203H67.8516V175.158H76.367V162.203Z" fill="#FF8139"/>
<path d="M59.3358 162.203H50.8203V175.158H59.3358V162.203Z" fill="#FF8139"/>
<rect width="86.112" height="5.9281" rx="2.96405" transform="matrix(-0.87163 0.490165 0.5099 0.860234 107.059 75.9297)" fill="#152D5D"/>
<path d="M113.029 201.331C113.029 201.331 100.709 201.331 100.709 190.111C100.709 178.892 108.476 175.761 106.869 167.543C105.262 159.324 111.69 151.235 120.53 156.193C129.37 161.15 122.52 178.153 125.618 183.328C128.717 188.503 129.634 202.114 113.029 201.331Z" fill="#081B42"/>
<path fill-rule="evenodd" clip-rule="evenodd" d="M115.098 154.677C117.335 156.551 119.068 159.861 117.815 165.232C115.295 176.035 117.059 180.454 119.327 184.382C121.581 188.287 118.108 202.382 102.223 196.036C105.53 201.331 112.998 201.331 112.998 201.331C129.602 202.114 128.686 188.503 125.587 183.328C124.408 181.359 124.669 177.678 124.959 173.6C125.43 166.959 125.976 159.264 120.499 156.193C118.563 155.107 116.743 154.647 115.098 154.677Z" fill="#00181B"/>
<rect width="1.75504" height="19.3782" transform="matrix(-1 0 0 1 115.137 192.957)" fill="#152D5D"/>
</svg>

<svg xmlns="http://www.w3.org/2000/svg" fill="none" viewBox="0 0 225 225"><path fill="#E1E1E1" d="M41.367 87.512c0-40.263 32.64-72.903 72.903-72.903 40.263 0 72.903 32.64 72.903 72.903V190.95H41.367V87.512z"/><ellipse cx="168.444" cy="88.579" fill="#FAFAFC" rx="18.226" ry="17.161"/><ellipse cx="59.089" cy="88.579" fill="#FAFAFC" rx="18.226" ry="17.161"/><ellipse cx="95.542" cy="88.579" fill="#FAFAFC" rx="18.226" ry="17.161"/><ellipse cx="131.991" cy="88.579" fill="#FAFAFC" rx="18.226" ry="17.161"/><path fill="#FAFAFC" d="M40.863 89.168h147.021v106.514H40.863z"/><path fill="#E1E1E1" d="M111.336 64.316h3.645v87.578h-3.645z"/><path fill="#E1E1E1" d="M121.057 164.913c-8.262 0-10.125-8.679-9.72-13.019l3.645-.027c-.178 3.353.789 9.495 6.075 9.495 5.287 0 5.645-5.325 5.468-8.284h3.037c.406 3.945-.243 11.835-8.505 11.835z"/><path fill="#E1E1E1" d="M125.527 102.875l62.044 27.71v81.284h-62.044V102.875z"/><path fill="#fff" d="M178.707 154.546v-3.237h-45.791v3.237h45.791zM178.707 143.753v-3.237h-45.791v3.237h45.791zM178.707 197.71v-3.237h-45.791v3.237h45.791zM178.707 186.921v-3.237h-45.791v3.237h45.791zM178.707 176.128v-3.237h-45.791v3.237h45.791zM178.707 165.335v-3.237h-45.791v3.237h45.791z"/><path fill="#152D5D" d="M120.242 97.998a3.046 3.046 0 013.99-1.15l68.35 34.992a2.883 2.883 0 011.174 4.055 3.047 3.047 0 01-3.99 1.151l-68.35-34.993a2.883 2.883 0 01-1.174-4.055zM102.91 83.453l-62.044 32.648v95.771h62.044V83.453z"/><path fill="#0C2048" d="M63.48 188.133h17.727v23.741H63.48z"/><path fill="#FF8139" d="M93.398 122.16h-8.515v12.955h8.515V122.16zM76.367 122.16h-8.515v12.955h8.515V122.16zM59.336 122.16H50.82v12.955h8.516V122.16zM93.398 142.18h-8.515v12.954h8.515V142.18zM76.367 142.18h-8.515v12.954h8.515V142.18zM59.336 142.18H50.82v12.954h8.516V142.18zM93.398 162.203h-8.515v12.955h8.515v-12.955zM76.367 162.203h-8.515v12.955h8.515v-12.955zM59.336 162.203H50.82v12.955h8.516v-12.955z"/><rect width="86.112" height="5.928" fill="#152D5D" rx="2.964" transform="matrix(-.87163 .49017 .5099 .86023 107.059 75.93)"/><path fill="#081B42" d="M113.029 201.331s-12.32 0-12.32-11.22c0-11.219 7.767-14.35 6.16-22.568-1.607-8.219 4.821-16.308 13.661-11.35 8.84 4.957 1.99 21.96 5.088 27.135 3.099 5.175 4.016 18.786-12.589 18.003z"/><path fill="#00181B" fill-rule="evenodd" d="M115.098 154.677c2.237 1.874 3.97 5.184 2.717 10.555-2.52 10.803-.756 15.222 1.512 19.15 2.254 3.905-1.219 18-17.104 11.654 3.307 5.295 10.775 5.295 10.775 5.295 16.604.783 15.688-12.828 12.589-18.003-1.179-1.969-.918-5.65-.628-9.728.471-6.641 1.017-14.336-4.46-17.407-1.936-1.086-3.756-1.546-5.401-1.516z" clip-rule="evenodd"/><path fill="#152D5D" d="M115.137 192.957h-1.755v19.378h1.755z"/></svg>
